X: 26562
T: Mick Carr's
R: barndance
M: 4/4
K: Gmajor
|:DGGB d2 (3B^cd|gdBG c2c2|DFAB c2cd|(3efg dc B2B2|
DGGB d2 (3B^cd|gdBG c2c2|DEFG ABcA|1 G2FA G2G2:|2 G2FA G2Bc||
|:dedc BGGB|dedB g2AB|cdcB A=F=FA|cdcA d2Bc|
dedc BGGB|dedB g2fg|efge dcBA|1 G2FA G2Bc:|2 G2FA G2G2||

